images/logo2-1.svg

<svg enable-background="new 0 0 57.87 13.21" viewBox="0 0 57.87 13.21" xmlns="http://www.w3.org/2000/svg"><g fill="#fff"><path d="m2.52 3.07v2.43h3.81v1.26h-3.81v3.45h-1.42v-8.41h5.64l-.01 1.27z"/><path d="m12.38 4.18c.5.27.9.65 1.17 1.14s.42 1.05.42 1.69c0 .63-.14 1.2-.42 1.69s-.67.87-1.17 1.15-1.08.41-1.73.41c-.66 0-1.24-.14-1.74-.41s-.89-.66-1.17-1.15-.42-1.06-.42-1.69c0-.64.14-1.2.42-1.69s.67-.87 1.17-1.14 1.09-.41 1.74-.41 1.23.13 1.73.41zm-3.14 1.35c-.36.39-.54.88-.54 1.49 0 .62.18 1.12.55 1.5s.83.58 1.41.58 1.04-.19 1.4-.58.54-.89.54-1.5-.18-1.11-.55-1.49-.83-.57-1.4-.57-1.04.19-1.41.57z"/><path d="m19.88 4.18c.5.27.9.65 1.17 1.14s.42 1.05.42 1.69c0 .63-.14 1.2-.42 1.69s-.67.87-1.17 1.15-1.08.41-1.73.41c-.66 0-1.24-.14-1.74-.41s-.9-.65-1.17-1.15-.42-1.05-.42-1.69.14-1.2.42-1.69.67-.87 1.17-1.14 1.08-.41 1.74-.41c.65 0 1.23.13 1.73.41zm-3.14 1.35c-.37.38-.55.88-.55 1.49 0 .62.18 1.12.55 1.5s.83.58 1.41.58 1.04-.19 1.4-.58.54-.89.54-1.5-.18-1.11-.55-1.49-.83-.57-1.4-.57c-.56 0-1.03.19-1.4.57z"/><path d="m29 10.2h-1.38v-1.09c-.23.38-.54.66-.92.86s-.82.29-1.33.29c-.61 0-1.14-.14-1.6-.41s-.82-.66-1.07-1.16-.38-1.06-.38-1.71c0-.63.13-1.19.38-1.68s.61-.87 1.07-1.14.99-.41 1.58-.41c.51 0 .96.1 1.34.3s.69.49.93.86v-3.62h1.38zm-1.92-1.67c.36-.39.54-.89.54-1.5 0-.62-.18-1.12-.54-1.51s-.83-.59-1.41-.59c-.57 0-1.04.2-1.41.59s-.55.9-.56 1.51c.01.61.19 1.11.56 1.5s.83.58 1.41.58c.57 0 1.04-.19 1.41-.58z"/></g><path d="m34.44 6.88v-1.99h1.32v1.99h1.22v1.26h-1.22v2.06h-1.32v-2.06h-4.01v-1.06l2.87-5.28h1.37l-2.72 5.08z" fill="#f37046"/><path d="m38.34 10.2v-8.91h1.38v8.91z" fill="#fff"/><path d="m43.08 1.39c.15.16.23.36.23.6s-.08.44-.23.59-.35.23-.58.23-.42-.08-.57-.23-.23-.35-.23-.59c0-.25.08-.45.23-.6s.34-.23.57-.23c.23-.01.43.07.58.23zm-1.26 8.81v-6.39h1.37v6.39z" fill="#fff"/><path d="m47.1 2.65c-.16.14-.25.36-.25.64v.76h1.66v1.04h-1.66v5.11h-1.37v-5.11h-.84v-1.04h.84v-.62c0-.47.1-.88.31-1.21s.48-.58.81-.74.7-.25 1.08-.25c.56 0 1.04.15 1.44.45l-.52 1.06c-.27-.2-.57-.3-.88-.3-.25 0-.45.07-.62.21z" fill="#fff"/><path d="m54.11 4.62c.5.57.75 1.37.75 2.4 0 .11-.01.28-.02.52h-4.83c.11.5.35.89.7 1.17s.78.43 1.28.43c.34 0 .67-.06.98-.19s.58-.31.81-.55l.73.78c-.32.34-.7.61-1.15.8s-.94.28-1.49.28c-.65 0-1.22-.14-1.71-.41s-.86-.66-1.13-1.15-.41-1.05-.41-1.68.14-1.19.41-1.68.65-.87 1.15-1.15 1.05-.42 1.68-.42c1 0 1.75.28 2.25.85zm-.99.7c-.32-.29-.74-.44-1.26-.44-.5 0-.92.15-1.25.44s-.54.7-.62 1.21h3.65c-.03-.51-.2-.92-.52-1.21z" fill="#fff"/><path d="m57.1 8.95c.14.15.21.33.21.56s-.07.42-.21.57-.32.23-.54.23c-.21 0-.39-.08-.54-.23s-.22-.34-.22-.58c0-.22.07-.41.22-.56s.32-.22.54-.22.4.08.54.23z" fill="#f37046"/></svg>

<?xml version="1.0" encoding="utf-8"?>
<!-- Generator: Adobe Illustrator 23.0.2, SVG Export Plug-In . SVG Version: 6.00 Build 0)  -->
<svg version="1.1" id="Layer_1" xmlns="http://www.w3.org/2000/svg" xmlns:xlink="http://www.w3.org/1999/xlink" x="0px" y="0px"
	 viewBox="0 0 57.87 13.21" style="enable-background:new 0 0 57.87 13.21;" xml:space="preserve">
<style type="text/css">
	.st0{fill:#FFFFFF;}
	.st1{fill:#F37046;}
</style>
<g>
	<path class="st0" d="M2.52,3.07V5.5h3.81v1.26H2.52v3.45H1.1V1.8h5.64L6.73,3.07H2.52z"/>
	<path class="st0" d="M12.38,4.18c0.5,0.27,0.9,0.65,1.17,1.14s0.42,1.05,0.42,1.69c0,0.63-0.14,1.2-0.42,1.69s-0.67,0.87-1.17,1.15
		s-1.08,0.41-1.73,0.41c-0.66,0-1.24-0.14-1.74-0.41S8.02,9.19,7.74,8.7S7.32,7.64,7.32,7.01c0-0.64,0.14-1.2,0.42-1.69
		s0.67-0.87,1.17-1.14S10,3.77,10.65,3.77C11.3,3.77,11.88,3.9,12.38,4.18z M9.24,5.53C8.88,5.92,8.7,6.41,8.7,7.02
		c0,0.62,0.18,1.12,0.55,1.5s0.83,0.58,1.41,0.58s1.04-0.19,1.4-0.58s0.54-0.89,0.54-1.5c0-0.61-0.18-1.11-0.55-1.49
		s-0.83-0.57-1.4-0.57C10.08,4.96,9.61,5.15,9.24,5.53z"/>
	<path class="st0" d="M19.88,4.18c0.5,0.27,0.9,0.65,1.17,1.14s0.42,1.05,0.42,1.69c0,0.63-0.14,1.2-0.42,1.69s-0.67,0.87-1.17,1.15
		s-1.08,0.41-1.73,0.41c-0.66,0-1.24-0.14-1.74-0.41s-0.9-0.65-1.17-1.15s-0.42-1.05-0.42-1.69c0-0.64,0.14-1.2,0.42-1.69
		s0.67-0.87,1.17-1.14s1.08-0.41,1.74-0.41C18.8,3.77,19.38,3.9,19.88,4.18z M16.74,5.53c-0.37,0.38-0.55,0.88-0.55,1.49
		c0,0.62,0.18,1.12,0.55,1.5s0.83,0.58,1.41,0.58s1.04-0.19,1.4-0.58s0.54-0.89,0.54-1.5c0-0.61-0.18-1.11-0.55-1.49
		s-0.83-0.57-1.4-0.57C17.58,4.96,17.11,5.15,16.74,5.53z"/>
	<path class="st0" d="M29,10.2h-1.38V9.11c-0.23,0.38-0.54,0.66-0.92,0.86s-0.82,0.29-1.33,0.29c-0.61,0-1.14-0.14-1.6-0.41
		s-0.82-0.66-1.07-1.16s-0.38-1.06-0.38-1.71c0-0.63,0.13-1.19,0.38-1.68s0.61-0.87,1.07-1.14s0.99-0.41,1.58-0.41
		c0.51,0,0.96,0.1,1.34,0.3s0.69,0.49,0.93,0.86V1.29H29V10.2z M27.08,8.53c0.36-0.39,0.54-0.89,0.54-1.5
		c0-0.62-0.18-1.12-0.54-1.51s-0.83-0.59-1.41-0.59c-0.57,0-1.04,0.2-1.41,0.59s-0.55,0.9-0.56,1.51c0.01,0.61,0.19,1.11,0.56,1.5
		s0.83,0.58,1.41,0.58C26.24,9.11,26.71,8.92,27.08,8.53z"/>
	<path class="st1" d="M34.44,6.88V4.89h1.32v1.99h1.22v1.26h-1.22v2.06h-1.32V8.14h-4.01V7.08L33.3,1.8h1.37l-2.72,5.08H34.44z"/>
	<path class="st0" d="M38.34,10.2V1.29h1.38v8.91H38.34z"/>
	<path class="st0" d="M43.08,1.39c0.15,0.16,0.23,0.36,0.23,0.6c0,0.24-0.08,0.44-0.23,0.59s-0.35,0.23-0.58,0.23
		c-0.23,0-0.42-0.08-0.57-0.23S41.7,2.23,41.7,1.99c0-0.25,0.08-0.45,0.23-0.6s0.34-0.23,0.57-0.23
		C42.73,1.15,42.93,1.23,43.08,1.39z M41.82,10.2V3.81h1.37v6.39H41.82z"/>
	<path class="st0" d="M47.1,2.65c-0.16,0.14-0.25,0.36-0.25,0.64v0.76h1.66v1.04h-1.66v5.11h-1.37V5.09h-0.84V4.05h0.84V3.43
		c0-0.47,0.1-0.88,0.31-1.21s0.48-0.58,0.81-0.74s0.7-0.25,1.08-0.25c0.56,0,1.04,0.15,1.44,0.45L48.6,2.74
		c-0.27-0.2-0.57-0.3-0.88-0.3C47.47,2.44,47.27,2.51,47.1,2.65z"/>
	<path class="st0" d="M54.11,4.62c0.5,0.57,0.75,1.37,0.75,2.4c0,0.11-0.01,0.28-0.02,0.52h-4.83c0.11,0.5,0.35,0.89,0.7,1.17
		s0.78,0.43,1.28,0.43c0.34,0,0.67-0.06,0.98-0.19s0.58-0.31,0.81-0.55l0.73,0.78c-0.32,0.34-0.7,0.61-1.15,0.8
		s-0.94,0.28-1.49,0.28c-0.65,0-1.22-0.14-1.71-0.41S49.3,9.19,49.03,8.7s-0.41-1.05-0.41-1.68s0.14-1.19,0.41-1.68
		s0.65-0.87,1.15-1.15s1.05-0.42,1.68-0.42C52.86,3.77,53.61,4.05,54.11,4.62z M53.12,5.32c-0.32-0.29-0.74-0.44-1.26-0.44
		c-0.5,0-0.92,0.15-1.25,0.44s-0.54,0.7-0.62,1.21h3.65C53.61,6.02,53.44,5.61,53.12,5.32z"/>
	<path class="st1" d="M57.1,8.95c0.14,0.15,0.21,0.33,0.21,0.56c0,0.23-0.07,0.42-0.21,0.57s-0.32,0.23-0.54,0.23
		c-0.21,0-0.39-0.08-0.54-0.23S55.8,9.74,55.8,9.5c0-0.22,0.07-0.41,0.22-0.56s0.32-0.22,0.54-0.22C56.78,8.72,56.96,8.8,57.1,8.95z
		"/>
</g>
</svg>
